package/converter/svg/thin/toggle-off.svg

<svg xmlns="http://www.w3.org/2000/svg" viewBox="0 0 576 512"><!-- Font Awesome Pro 6.0.0-alpha2 by @fontawesome - https://fontawesome.com License - https://fontawesome.com/license (Commercial License) --><path d="M416 96H160C71.635 96 0 167.635 0 256S71.635 416 160 416H416C504.365 416 576 344.365 576 256S504.365 96 416 96ZM416 400H160C80.598 400 16 335.402 16 256S80.598 112 160 112H416C495.402 112 560 176.598 560 256S495.402 400 416 400ZM160 160C106.98 160 64 202.98 64 256S106.98 352 160 352S256 309.02 256 256S213.02 160 160 160ZM160 336C115.889 336 80 300.111 80 256S115.889 176 160 176S240 211.889 240 256S204.111 336 160 336Z"/></svg>

<svg xmlns="http://www.w3.org/2000/svg" viewBox="0 0 576 512"><!--! Font Awesome Pro 6.6.0 by @fontawesome - https://fontawesome.com License - https://fontawesome.com/license (Commercial License) Copyright 2024 Fonticons, Inc. --><path d="M416 112c79.5 0 144 64.5 144 144s-64.5 144-144 144l-256 0C80.5 400 16 335.5 16 256s64.5-144 144-144l256 0zM576 256c0-88.4-71.6-160-160-160L160 96C71.6 96 0 167.6 0 256s71.6 160 160 160l256 0c88.4 0 160-71.6 160-160zm-336 0A80 80 0 1 1 80 256a80 80 0 1 1 160 0zM64 256a96 96 0 1 0 192 0A96 96 0 1 0 64 256z"/></svg>
